korla/apps/scalable/QMPlay2.svg

<svg xmlns="http://www.w3.org/2000/svg" width="64" height="64" version="1">
 <path style="fill:#4f4f4f" d="M 9.0683381,4.0013414 A 4.9535396,4.3943464 0 0 0 3.9999999,8.3938878 l 0,47.2154242 a 4.9535396,4.3943464 0 0 0 7.4301091,3.802353 L 34.475828,47.611809 57.523547,35.807953 a 4.9535396,4.3943464 0 0 0 0,-7.610907 L 34.475828,16.39379 11.430109,4.5901342 A 4.9535396,4.3943464 0 0 0 9.0685381,4.0029414 Z"/>
 <path style="opacity:0.2" d="M 11.999902,15.000439 11.999902,51 30.919671,41.540115 47.999463,33.000219 30.919671,24.460324 11.999902,15.000439 Z"/>
 <path style="fill:#00e382" d="m 11.999902,14.000855 0,35.999561 L 30.919671,40.540532 47.999463,32.000636 30.919671,23.46074 11.999902,14.000855 Z"/>
 <path style="opacity:0.1;fill:#ffffff" d="M 9.0705744,4.0012146 A 4.9540755,4.3921679 0 0 0 4,8.3937524 L 4,9.3932988 A 4.9540755,4.3921679 0 0 1 9.0705744,5.000761 4.9540755,4.3921679 0 0 1 11.430072,5.5903372 L 34.478136,17.383813 57.528156,29.183145 A 4.9540755,4.3921679 0 0 1 59.965782,32.5 4.9540755,4.3921679 0 0 0 57.528156,28.183599 L 34.478136,16.384267 11.430072,4.5907908 A 4.9540755,4.3921679 0 0 0 9.0705744,4.0012146 Z"/>
 <path style="opacity:0.2" d="m 59.967747,32.5 a 4.9543475,4.3954322 0 0 1 -2.437711,3.303384 L 34.481161,47.608436 11.430333,59.411534 A 4.9543475,4.3954322 0 0 1 4,55.610007 l 0,1.000196 a 4.9543475,4.3954322 0 0 0 7.430333,3.801528 L 34.481161,48.608632 57.530036,36.80358 A 4.9543475,4.3954322 0 0 0 59.967747,32.5 Z"/>
</svg>

<svg style="clip-rule:evenodd;fill-rule:evenodd;stroke-linejoin:round;stroke-miterlimit:2" version="1.1" viewBox="0 0 64 64" xmlns="http://www.w3.org/2000/svg">
 <path d="m9.068 4.001c-0.038 0-0.076-1e-3 -0.114-1e-3 -2.718 0-4.954 1.983-4.954 4.394v47.215c2e-3 2.41 2.238 4.391 4.954 4.391 0.869 0 1.723-0.203 2.476-0.588l23.046-11.8 23.048-11.804c1.53-0.784 2.476-2.238 2.476-3.806 0-1.567-0.946-3.021-2.476-3.805l-23.048-11.803-23.046-11.804c-0.719-0.368-1.531-0.57-2.361-0.587l-1e-3 -2e-3z" style="fill-rule:nonzero;fill:url(#_Linear1)"/>
 <path d="m12 14.001v35.999l18.92-9.459 17.079-8.54-17.079-8.54-18.92-9.46z" style="fill-rule:nonzero;fill:#00e382"/>
 <defs>
  <linearGradient id="_Linear1" x2="1" gradientTransform="matrix(-.952854 -52.7246 52.7246 -.952854 20.7643 57.727)" gradientUnits="userSpaceOnUse">
   <stop style="stop-color:#2f2f2f" offset="0"/>
   <stop style="stop-color:#4f4f4f" offset="1"/>
  </linearGradient>
 </defs>
</svg>
